!!!COM: Mozart
!!!OTL: Sechs Variationen in F uber die Arie 'Salve tu, Domine' aus der Oper 'I filosofi immaginarii' 
!!!Variation: Variation 6 d
**function	**harm	**kern	**kern
*	*	*clefF4	*clefG2
*	*	*k[b-]	*k[b-]
*M3/4	*M3/4	*M3/4	*M3/4
*F:	*F:	*F:	*F:
=167	=167	=167	=167
*	*	*	*^
4T	B-:maj	8FFL	8.aL	4f
.	.	8FJ	.	.
.	.	.	16ccJk	.
4T	B-:maj/3	8AAL	8cL 8f	4r
.	.	8AJ	8cJ 8f	.
4T	F:maj	8CL	8eL 8g	4r
.	.	8cJ	8eJ 8g	.
=168	=168	=168	=168	=168
4T	B-:maj	8FFL	8.aL	4f
.	.	8FJ	.	.
.	.	.	16ccJk	.
4T	B-:maj/3	8AAL	8cL 8f	4r
.	.	8AJ	8cJ 8f	.
4T	F:maj	8CL	8eL 8g	4r
.	.	8cJ	8eJ 8g	.
=169	=169	=169	=169	=169
4T	B-:maj	4F	8.aL	4f
.	.	.	16ffJk	.
4T	C:min7/b3	4BB- 4B-	8.gL	4d
.	.	.	16ddJk	.
4T	F:7	4C 4c	8.ccL	4e
.	.	.	16b-Jk	.
=170	=170	=170	=170	=170
2.T	G:min	2D 2d	2b-	2e
.	.	4r	4a	4f
*	*	*	*v	*v
*	*	*clefG2	*
=171	=171	=171	=171
4T	B-:maj	8FL	16aaLL
.	.	.	16bb-
.	.	8fJ	16bb
.	.	.	16cccJJ
4T	B-:maj/3	8AL	8ffL
.	.	8aJ	8ffJ
4T	F:maj	8cL	8ggL
.	.	8ccJ	8ggJ
=172	=172	=172	=172
4T	B-:maj	8FL	16aaLL
.	.	.	16bb-
.	.	8fJ	16bb
.	.	.	16cccJJ
4T	B-:maj/3	8AL	8ffL
.	.	8aJ	8ffJ
4T	F:maj	8cL	8ggL
.	.	8ccJ	8ggJ
=173	=173	=173	=173
4T	B-:maj/3	4f 4ff	(8.aaL
.	.	.	16fffJk)
4T	C:min/b3	4B- 4g 4dd	(8.ggL
.	.	.	16dddJk)
4T	F:7	4c 4g	(8.cccL
.	.	.	16eeJk)
=174	=174	=174	=174
2.T	B-:maj	4f 4a	4ff
.	.	2r	4r
.	.	.	4r
*	*	*clefF4	*
=175	=175	=175	=175
4T	G:min	4AA 4F	(8.aL
.	.	.	16ffJk)
4T	C:min/b3	4BB- 4G	(8.gL
.	.	.	16ddJk)
4T	F:7	4C 4B-	(8.ccL
.	.	.	16eJk)
=176	=176	=176	=176
2.T	B-:maj	4F 4A	4f
.	.	4r	4r
.	.	4r	4r
*	*	*	*clefF4
=177	=177	=177	=177
4T	G:min	4D	(16ALK
.	.	.	8.fJ)
4T	C:min/b3	4BB-	(16GLK
.	.	.	8.dJ)
4T	F:maj	4C	(16cLK
.	.	.	8.EJ)
=178	=178	=178	=178
2.T	B-:maj	4FF	4F
.	.	4r	4r
.	.	4r	4r
=179	=179	=179	=179
4T	G:min	4DD	(16AALK
.	.	.	8.FJ)
4T	C:min/b3	4BBB-	(16GGLK
.	.	.	8.DJ)
4T	F:maj	4CC	(16CLK
.	.	.	8.EEJ)
=180	=180	=180	=180
2.T	B-:7	2.FFF 2.FF	(16ALK
.	.	.	8.e-J)
.	.	.	(16dLK
.	.	.	8.B-J)
.	.	.	(16ALK
.	.	.	8.c#J)
=181	=181	=181	=181
4T	E-:maj/5	2.FFF 2.FF	(16dLK
.	.	.	8.B-J)
2T	B-:maj	.	(16ALK
.	.	.	8.cJ)
.	.	.	(16BLK
.	.	.	8.G#J)
=182	=182	=182	=182
4T	B-:maj	2.FFF 2.FF	(16ALK
.	.	.	8.cJ)
4T	C:min7/b7	.	(16B-LK
.	.	.	8.GJ)
4T	B-:maj	.	(16FLK
.	.	.	8.AJ)
=183	=183	=183	=183
.	.	.	(q64E
.	.	.	q64G
2.D	F:7	4r	4B-)
.	.	4CC	4G 4B-
.	.	4CC	4G 4B-
=184	=184	=184	=184
2.T	B-:maj	[2.FFF [2.FF	(2.E 2.G 2.B-
=185	=185	=185	=185
2.T	B-:maj	4FFF] 4FF]	4F) 4A
.	.	4r	4r
.	.	4r	4r
==	==	==	==
*-	*-	*-	*-
!!!EMD: Edited in humdrumR 0.7.0.3 on 2024-01-19
